images/29655.svg

<?xml version="1.0" encoding="UTF-8"?>
<svg xmlns="http://www.w3.org/2000/svg" xmlns:xlink="http://www.w3.org/1999/xlink" width="300pt" height="300pt" viewBox="0 0 300 300" version="1.1">
<defs>
<g>
<symbol overflow="visible" id="glyph0-0">
<path style="stroke:none;" d="M 0.546875 1.9375 L 0.546875 -7.75 L 6.046875 -7.75 L 6.046875 1.9375 Z M 1.171875 1.328125 L 5.4375 1.328125 L 5.4375 -7.140625 L 1.171875 -7.140625 Z M 1.171875 1.328125 "/>
</symbol>
<symbol overflow="visible" id="glyph0-1">
<path style="stroke:none;" d="M 1.078125 -8.015625 L 5.6875 -8.015625 L 5.6875 -7.109375 L 2.171875 -7.109375 L 2.171875 -4.75 L 5.34375 -4.75 L 5.34375 -3.828125 L 2.171875 -3.828125 L 2.171875 0 L 1.078125 0 Z M 1.078125 -8.015625 "/>
</symbol>
<symbol overflow="visible" id="glyph0-2">
<path style="stroke:none;" d="M 1.078125 -8.015625 L 2.546875 -8.015625 L 6.09375 -1.3125 L 6.09375 -8.015625 L 7.15625 -8.015625 L 7.15625 0 L 5.6875 0 L 2.125 -6.703125 L 2.125 0 L 1.078125 0 Z M 1.078125 -8.015625 "/>
</symbol>
<symbol overflow="visible" id="glyph0-3">
<path style="stroke:none;" d="M 4.328125 -7.28125 C 3.546875 -7.28125 2.921875 -6.984375 2.453125 -6.390625 C 1.992188 -5.804688 1.765625 -5.007812 1.765625 -4 C 1.765625 -2.988281 1.992188 -2.1875 2.453125 -1.59375 C 2.921875 -1.007812 3.546875 -0.71875 4.328125 -0.71875 C 5.117188 -0.71875 5.742188 -1.007812 6.203125 -1.59375 C 6.660156 -2.1875 6.890625 -2.988281 6.890625 -4 C 6.890625 -5.007812 6.660156 -5.804688 6.203125 -6.390625 C 5.742188 -6.984375 5.117188 -7.28125 4.328125 -7.28125 Z M 4.328125 -8.171875 C 5.453125 -8.171875 6.351562 -7.789062 7.03125 -7.03125 C 7.707031 -6.28125 8.046875 -5.269531 8.046875 -4 C 8.046875 -2.738281 7.707031 -1.726562 7.03125 -0.96875 C 6.351562 -0.21875 5.453125 0.15625 4.328125 0.15625 C 3.203125 0.15625 2.300781 -0.21875 1.625 -0.96875 C 0.957031 -1.71875 0.625 -2.726562 0.625 -4 C 0.625 -5.269531 0.957031 -6.28125 1.625 -7.03125 C 2.300781 -7.789062 3.203125 -8.171875 4.328125 -8.171875 Z M 4.328125 -8.171875 "/>
</symbol>
</g>
</defs>
<g id="surface14249">
<rect x="0" y="0" width="300" height="300" style="fill:rgb(100%,100%,100%);fill-opacity:1;stroke:none;"/>
<path style="fill:none;stroke-width:1.2;stroke-linecap:butt;stroke-linejoin:miter;stroke:rgb(20%,80%,80%);stroke-opacity:1;stroke-miterlimit:10;" d="M 35.25 220.023438 L 43.050781 208.085938 "/>
<path style="fill:none;stroke-width:1.2;stroke-linecap:butt;stroke-linejoin:miter;stroke:rgb(0%,0%,0%);stroke-opacity:1;stroke-miterlimit:10;" d="M 43.050781 208.085938 L 50.851562 196.148438 "/>
<path style=" stroke:none;fill-rule:nonzero;fill:rgb(100%,100%,100%);fill-opacity:1;" d="M 28.25 213.523438 L 35.25 213.523438 L 35.25 226.523438 L 28.25 226.523438 Z M 28.25 213.523438 "/>
<g style="fill:rgb(20%,80%,80%);fill-opacity:1;">
  <use xlink:href="#glyph0-1" x="28.25" y="223.424805"/>
</g>
<path style="fill:none;stroke-width:1.2;stroke-linecap:butt;stroke-linejoin:miter;stroke:rgb(0%,0%,0%);stroke-opacity:1;stroke-miterlimit:10;" d="M 50.851562 196.148438 L 37.976562 170.699219 "/>
<path style="fill:none;stroke-width:1.2;stroke-linecap:butt;stroke-linejoin:miter;stroke:rgb(0%,0%,0%);stroke-opacity:1;stroke-miterlimit:10;" d="M 55.554688 190.574219 L 45.25 170.210938 "/>
<path style="fill:none;stroke-width:1.2;stroke-linecap:butt;stroke-linejoin:miter;stroke:rgb(0%,0%,0%);stroke-opacity:1;stroke-miterlimit:10;" d="M 79.332031 197.722656 L 50.851562 196.148438 "/>
<path style="fill:none;stroke-width:1.2;stroke-linecap:butt;stroke-linejoin:miter;stroke:rgb(0%,0%,0%);stroke-opacity:1;stroke-miterlimit:10;" d="M 37.976562 170.699219 L 53.578125 146.820312 "/>
<path style="fill:none;stroke-width:1.2;stroke-linecap:butt;stroke-linejoin:miter;stroke:rgb(0%,0%,0%);stroke-opacity:1;stroke-miterlimit:10;" d="M 53.578125 146.820312 L 82.054688 148.394531 "/>
<path style="fill:none;stroke-width:1.2;stroke-linecap:butt;stroke-linejoin:miter;stroke:rgb(0%,0%,0%);stroke-opacity:1;stroke-miterlimit:10;" d="M 56.054688 153.679688 L 78.839844 154.9375 "/>
<path style="fill:none;stroke-width:1.2;stroke-linecap:butt;stroke-linejoin:miter;stroke:rgb(0%,0%,0%);stroke-opacity:1;stroke-miterlimit:10;" d="M 82.054688 148.394531 L 94.933594 173.84375 "/>
<path style="fill:none;stroke-width:1.2;stroke-linecap:butt;stroke-linejoin:miter;stroke:rgb(0%,0%,0%);stroke-opacity:1;stroke-miterlimit:10;" d="M 82.054688 148.394531 L 97.660156 124.519531 "/>
<path style="fill:none;stroke-width:1.2;stroke-linecap:butt;stroke-linejoin:miter;stroke:rgb(0%,0%,0%);stroke-opacity:1;stroke-miterlimit:10;" d="M 94.933594 173.84375 L 79.332031 197.722656 "/>
<path style="fill:none;stroke-width:1.2;stroke-linecap:butt;stroke-linejoin:miter;stroke:rgb(0%,0%,0%);stroke-opacity:1;stroke-miterlimit:10;" d="M 87.753906 172.5625 L 75.273438 191.664062 "/>
<path style="fill:none;stroke-width:1.2;stroke-linecap:butt;stroke-linejoin:miter;stroke:rgb(0%,0%,0%);stroke-opacity:1;stroke-miterlimit:10;" d="M 97.660156 124.519531 L 92.585938 111.191406 "/>
<path style="fill:none;stroke-width:1.2;stroke-linecap:butt;stroke-linejoin:miter;stroke:rgb(0%,0%,100%);stroke-opacity:1;stroke-miterlimit:10;" d="M 92.585938 111.191406 L 87.511719 97.863281 "/>
<path style="fill:none;stroke-width:1.2;stroke-linecap:butt;stroke-linejoin:miter;stroke:rgb(0%,0%,0%);stroke-opacity:1;stroke-miterlimit:10;" d="M 126.144531 123.109375 L 97.660156 124.519531 "/>
<path style="fill:none;stroke-width:1.2;stroke-linecap:butt;stroke-linejoin:miter;stroke:rgb(0%,0%,0%);stroke-opacity:1;stroke-miterlimit:10;" d="M 122.964844 116.546875 L 100.175781 117.675781 "/>
<path style="fill:none;stroke-width:1.2;stroke-linecap:butt;stroke-linejoin:miter;stroke:rgb(0%,0%,100%);stroke-opacity:1;stroke-miterlimit:10;" d="M 87.511719 97.863281 L 98.621094 88.917969 "/>
<path style="fill:none;stroke-width:1.2;stroke-linecap:butt;stroke-linejoin:miter;stroke:rgb(0%,0%,0%);stroke-opacity:1;stroke-miterlimit:10;" d="M 98.621094 88.917969 L 109.730469 79.976562 "/>
<path style="fill:none;stroke-width:1.2;stroke-linecap:butt;stroke-linejoin:miter;stroke:rgb(0%,0%,100%);stroke-opacity:1;stroke-miterlimit:10;" d="M 93.941406 101.300781 L 102.828125 94.148438 "/>
<path style="fill:none;stroke-width:1.2;stroke-linecap:butt;stroke-linejoin:miter;stroke:rgb(0%,0%,0%);stroke-opacity:1;stroke-miterlimit:10;" d="M 102.828125 94.148438 L 111.714844 86.992188 "/>
<path style=" stroke:none;fill-rule:nonzero;fill:rgb(100%,100%,100%);fill-opacity:1;" d="M 83.511719 91.363281 L 91.511719 91.363281 L 91.511719 104.363281 L 83.511719 104.363281 Z M 83.511719 91.363281 "/>
<g style="fill:rgb(0%,0%,100%);fill-opacity:1;">
  <use xlink:href="#glyph0-2" x="83.511719" y="101.264648"/>
</g>
<path style="fill:none;stroke-width:1.2;stroke-linecap:butt;stroke-linejoin:miter;stroke:rgb(0%,0%,0%);stroke-opacity:1;stroke-miterlimit:10;" d="M 109.730469 79.976562 L 121.667969 87.777344 "/>
<path style="fill:none;stroke-width:1.2;stroke-linecap:butt;stroke-linejoin:miter;stroke:rgb(100%,0%,0%);stroke-opacity:1;stroke-miterlimit:10;" d="M 121.667969 87.777344 L 133.605469 95.578125 "/>
<path style="fill:none;stroke-width:1.2;stroke-linecap:butt;stroke-linejoin:miter;stroke:rgb(100%,0%,0%);stroke-opacity:1;stroke-miterlimit:10;" d="M 133.605469 95.578125 L 129.875 109.34375 "/>
<path style="fill:none;stroke-width:1.2;stroke-linecap:butt;stroke-linejoin:miter;stroke:rgb(0%,0%,0%);stroke-opacity:1;stroke-miterlimit:10;" d="M 129.875 109.34375 L 126.144531 123.109375 "/>
<path style=" stroke:none;fill-rule:nonzero;fill:rgb(100%,100%,100%);fill-opacity:1;" d="M 129.605469 89.078125 L 138.605469 89.078125 L 138.605469 102.078125 L 129.605469 102.078125 Z M 129.605469 89.078125 "/>
<g style="fill:rgb(100%,0%,0%);fill-opacity:1;">
  <use xlink:href="#glyph0-3" x="129.605469" y="98.979492"/>
</g>
<path style="fill:none;stroke-width:1.2;stroke-linecap:butt;stroke-linejoin:miter;stroke:rgb(0%,0%,0%);stroke-opacity:1;stroke-miterlimit:10;" d="M 126.144531 123.109375 L 144.03125 145.324219 "/>
<path style="fill:none;stroke-width:1.2;stroke-linecap:butt;stroke-linejoin:miter;stroke:rgb(0%,0%,0%);stroke-opacity:1;stroke-miterlimit:10;" d="M 144.03125 145.324219 L 133.734375 171.921875 "/>
<path style="fill:none;stroke-width:1.2;stroke-linecap:butt;stroke-linejoin:miter;stroke:rgb(0%,0%,0%);stroke-opacity:1;stroke-miterlimit:10;" d="M 144.03125 145.324219 L 172.214844 140.941406 "/>
<path style="fill:none;stroke-width:1.2;stroke-linecap:butt;stroke-linejoin:miter;stroke:rgb(0%,0%,0%);stroke-opacity:1;stroke-miterlimit:10;" d="M 147.882812 151.515625 L 170.425781 148.011719 "/>
<path style="fill:none;stroke-width:1.2;stroke-linecap:butt;stroke-linejoin:miter;stroke:rgb(0%,0%,0%);stroke-opacity:1;stroke-miterlimit:10;" d="M 133.734375 171.921875 L 151.621094 194.140625 "/>
<path style="fill:none;stroke-width:1.2;stroke-linecap:butt;stroke-linejoin:miter;stroke:rgb(0%,0%,0%);stroke-opacity:1;stroke-miterlimit:10;" d="M 140.75 169.933594 L 155.058594 187.707031 "/>
<path style="fill:none;stroke-width:1.2;stroke-linecap:butt;stroke-linejoin:miter;stroke:rgb(0%,0%,0%);stroke-opacity:1;stroke-miterlimit:10;" d="M 151.621094 194.140625 L 179.804688 189.757812 "/>
<path style="fill:none;stroke-width:1.2;stroke-linecap:butt;stroke-linejoin:miter;stroke:rgb(0%,0%,0%);stroke-opacity:1;stroke-miterlimit:10;" d="M 179.804688 189.757812 L 184.953125 176.457031 "/>
<path style="fill:none;stroke-width:1.2;stroke-linecap:butt;stroke-linejoin:miter;stroke:rgb(0%,0%,100%);stroke-opacity:1;stroke-miterlimit:10;" d="M 184.953125 176.457031 L 190.101562 163.160156 "/>
<path style="fill:none;stroke-width:1.2;stroke-linecap:butt;stroke-linejoin:miter;stroke:rgb(0%,0%,100%);stroke-opacity:1;stroke-miterlimit:10;" d="M 201.917969 207.769531 L 190.863281 198.761719 "/>
<path style="fill:none;stroke-width:1.2;stroke-linecap:butt;stroke-linejoin:miter;stroke:rgb(0%,0%,0%);stroke-opacity:1;stroke-miterlimit:10;" d="M 190.863281 198.761719 L 179.804688 189.757812 "/>
<path style="fill:none;stroke-width:1.2;stroke-linecap:butt;stroke-linejoin:miter;stroke:rgb(0%,0%,100%);stroke-opacity:1;stroke-miterlimit:10;" d="M 203.945312 200.765625 L 195.101562 193.558594 "/>
<path style="fill:none;stroke-width:1.2;stroke-linecap:butt;stroke-linejoin:miter;stroke:rgb(0%,0%,0%);stroke-opacity:1;stroke-miterlimit:10;" d="M 195.101562 193.558594 L 186.253906 186.355469 "/>
<path style="fill:none;stroke-width:1.2;stroke-linecap:butt;stroke-linejoin:miter;stroke:rgb(0%,0%,100%);stroke-opacity:1;stroke-miterlimit:10;" d="M 190.101562 163.160156 L 181.15625 152.050781 "/>
<path style="fill:none;stroke-width:1.2;stroke-linecap:butt;stroke-linejoin:miter;stroke:rgb(0%,0%,0%);stroke-opacity:1;stroke-miterlimit:10;" d="M 181.15625 152.050781 L 172.214844 140.941406 "/>
<path style="fill:none;stroke-width:1.2;stroke-linecap:butt;stroke-linejoin:miter;stroke:rgb(0%,0%,100%);stroke-opacity:1;stroke-miterlimit:10;" d="M 190.101562 163.160156 L 204.339844 163.945312 "/>
<path style="fill:none;stroke-width:1.2;stroke-linecap:butt;stroke-linejoin:miter;stroke:rgb(0%,0%,0%);stroke-opacity:1;stroke-miterlimit:10;" d="M 204.339844 163.945312 L 218.578125 164.734375 "/>
<path style=" stroke:none;fill-rule:nonzero;fill:rgb(100%,100%,100%);fill-opacity:1;" d="M 186.101562 156.660156 L 194.101562 156.660156 L 194.101562 169.660156 L 186.101562 169.660156 Z M 186.101562 156.660156 "/>
<g style="fill:rgb(0%,0%,100%);fill-opacity:1;">
  <use xlink:href="#glyph0-2" x="186.101562" y="166.561523"/>
</g>
<path style="fill:none;stroke-width:1.2;stroke-linecap:butt;stroke-linejoin:miter;stroke:rgb(0%,0%,0%);stroke-opacity:1;stroke-miterlimit:10;" d="M 218.578125 164.734375 L 222.230469 178.519531 "/>
<path style="fill:none;stroke-width:1.2;stroke-linecap:butt;stroke-linejoin:miter;stroke:rgb(0%,0%,100%);stroke-opacity:1;stroke-miterlimit:10;" d="M 222.230469 178.519531 L 225.882812 192.304688 "/>
<path style="fill:none;stroke-width:1.2;stroke-linecap:butt;stroke-linejoin:miter;stroke:rgb(0%,0%,0%);stroke-opacity:1;stroke-miterlimit:10;" d="M 212.824219 169.207031 L 215.746094 180.238281 "/>
<path style="fill:none;stroke-width:1.2;stroke-linecap:butt;stroke-linejoin:miter;stroke:rgb(0%,0%,100%);stroke-opacity:1;stroke-miterlimit:10;" d="M 215.746094 180.238281 L 218.664062 191.265625 "/>
<path style="fill:none;stroke-width:1.2;stroke-linecap:butt;stroke-linejoin:miter;stroke:rgb(0%,0%,0%);stroke-opacity:1;stroke-miterlimit:10;" d="M 218.578125 164.734375 L 236.59375 142.617188 "/>
<path style="fill:none;stroke-width:1.2;stroke-linecap:butt;stroke-linejoin:miter;stroke:rgb(0%,0%,100%);stroke-opacity:1;stroke-miterlimit:10;" d="M 225.882812 192.304688 L 201.917969 207.769531 "/>
<path style=" stroke:none;fill-rule:nonzero;fill:rgb(100%,100%,100%);fill-opacity:1;" d="M 221.882812 185.804688 L 229.882812 185.804688 L 229.882812 198.804688 L 221.882812 198.804688 Z M 221.882812 185.804688 "/>
<g style="fill:rgb(0%,0%,100%);fill-opacity:1;">
  <use xlink:href="#glyph0-2" x="221.882812" y="195.706055"/>
</g>
<path style=" stroke:none;fill-rule:nonzero;fill:rgb(100%,100%,100%);fill-opacity:1;" d="M 197.917969 201.269531 L 205.917969 201.269531 L 205.917969 214.269531 L 197.917969 214.269531 Z M 197.917969 201.269531 "/>
<g style="fill:rgb(0%,0%,100%);fill-opacity:1;">
  <use xlink:href="#glyph0-2" x="197.917969" y="211.170898"/>
</g>
<path style="fill:none;stroke-width:1.2;stroke-linecap:butt;stroke-linejoin:miter;stroke:rgb(0%,0%,0%);stroke-opacity:1;stroke-miterlimit:10;" d="M 236.59375 142.617188 L 264.75 147.160156 "/>
</g>
</svg>

<svg xmlns="http://www.w3.org/2000/svg" xmlns:xlink="http://www.w3.org/1999/xlink" width="300pt" height="300pt" viewBox="0 0 300 300"><defs><symbol overflow="visible"><path d="M.547 1.938V-7.75h5.5v9.688zm.625-.61h4.266v-8.47H1.171zm0 0"/></symbol><symbol overflow="visible" id="a"><path d="M1.078-8.016h4.61v.907H2.171v2.36h3.172v.922H2.172V0H1.078zm0 0"/></symbol><symbol overflow="visible" id="b"><path d="M1.078-8.016h1.47l3.546 6.704v-6.704h1.062V0H5.688L2.124-6.703V0H1.078zm0 0"/></symbol><symbol overflow="visible" id="c"><path d="M4.328-7.28c-.78 0-1.406.296-1.875.89-.46.585-.687 1.382-.687 2.39 0 1.012.226 1.813.687 2.406.47.586 1.094.875 1.875.875.79 0 1.414-.288 1.875-.874.457-.593.688-1.394.688-2.406 0-1.008-.23-1.805-.687-2.39-.46-.594-1.086-.89-1.875-.89zm0-.892c1.125 0 2.024.383 2.703 1.14C7.708-6.28 8.048-5.27 8.048-4c0 1.262-.34 2.273-1.016 3.03C6.353-.22 5.454.157 4.33.157S2.3-.22 1.625-.97c-.668-.75-1-1.757-1-3.03 0-1.27.332-2.28 1-3.03.676-.76 1.578-1.142 2.703-1.142zm0 0"/></symbol></defs><g><path fill="#fff" d="M0 0h300v300H0z"/><path d="M35.25 220.023l7.8-11.937" stroke-width="1.2" stroke="#3cc" stroke-miterlimit="10" fill="none"/><path d="M43.05 208.086l7.802-11.938" stroke-width="1.2" stroke="#000" stroke-miterlimit="10" fill="none"/><path d="M28.25 213.523h7v13h-7zm0 0" fill="#fff"/><use xlink:href="#a" x="28.25" y="223.425" fill="#3cc"/><path d="M50.852 196.148l-12.875-25.45M55.555 190.574L45.25 170.21M79.332 197.723l-28.48-1.575M37.977 170.7l15.6-23.88M53.578 146.82l28.477 1.575M56.055 153.68l22.785 1.257M82.055 148.395l12.88 25.45M82.055 148.395L97.66 124.52M94.934 173.844l-15.602 23.88M87.754 172.563l-12.48 19.1M97.66 124.52l-5.074-13.33" stroke-width="1.2" stroke="#000" stroke-miterlimit="10" fill="none"/><path d="M92.586 111.19l-5.074-13.327" stroke-width="1.2" stroke="#00f" stroke-miterlimit="10" fill="none"/><path d="M126.145 123.11l-28.485 1.41M122.965 116.547l-22.79 1.13" stroke-width="1.2" stroke="#000" stroke-miterlimit="10" fill="none"/><path d="M87.512 97.863l11.11-8.945" stroke-width="1.2" stroke="#00f" stroke-miterlimit="10" fill="none"/><path d="M98.62 88.918l11.11-8.94" stroke-width="1.2" stroke="#000" stroke-miterlimit="10" fill="none"/><path d="M93.94 101.3l8.888-7.152" stroke-width="1.2" stroke="#00f" stroke-miterlimit="10" fill="none"/><path d="M102.828 94.148l8.887-7.156" stroke-width="1.2" stroke="#000" stroke-miterlimit="10" fill="none"/><path d="M83.512 91.363h8v13h-8zm0 0" fill="#fff"/><use xlink:href="#b" x="83.512" y="101.265" fill="#00f"/><path d="M109.73 79.977l11.938 7.8" stroke-width="1.2" stroke="#000" stroke-miterlimit="10" fill="none"/><path d="M121.668 87.777l11.937 7.8M133.605 95.578l-3.73 13.766" stroke-width="1.2" stroke="#f00" stroke-miterlimit="10" fill="none"/><path d="M129.875 109.344l-3.73 13.765" stroke-width="1.2" stroke="#000" stroke-miterlimit="10" fill="none"/><path d="M129.605 89.078h9v13h-9zm0 0" fill="#fff"/><use xlink:href="#c" x="129.605" y="98.979" fill="#f00"/><path d="M126.145 123.11l17.886 22.214M144.03 145.324l-10.296 26.598M144.03 145.324l28.185-4.383M147.883 151.516l22.543-3.504M133.734 171.922l17.887 22.22M140.75 169.934l14.31 17.773M151.62 194.14l28.185-4.382M179.805 189.758l5.148-13.3" stroke-width="1.2" stroke="#000" stroke-miterlimit="10" fill="none"/><path d="M184.953 176.457l5.15-13.297M201.918 207.77l-11.055-9.008" stroke-width="1.2" stroke="#00f" stroke-miterlimit="10" fill="none"/><path d="M190.863 198.762l-11.058-9.004" stroke-width="1.2" stroke="#000" stroke-miterlimit="10" fill="none"/><path d="M203.945 200.766l-8.843-7.207" stroke-width="1.2" stroke="#00f" stroke-miterlimit="10" fill="none"/><path d="M195.102 193.56l-8.848-7.205" stroke-width="1.2" stroke="#000" stroke-miterlimit="10" fill="none"/><path d="M190.102 163.16l-8.946-11.11" stroke-width="1.2" stroke="#00f" stroke-miterlimit="10" fill="none"/><path d="M181.156 152.05l-8.94-11.11" stroke-width="1.2" stroke="#000" stroke-miterlimit="10" fill="none"/><path d="M190.102 163.16l14.238.785" stroke-width="1.2" stroke="#00f" stroke-miterlimit="10" fill="none"/><path d="M204.34 163.945l14.238.79" stroke-width="1.2" stroke="#000" stroke-miterlimit="10" fill="none"/><path d="M186.102 156.66h8v13h-8zm0 0" fill="#fff"/><use xlink:href="#b" x="186.102" y="166.562" fill="#00f"/><path d="M218.578 164.734l3.652 13.786" stroke-width="1.2" stroke="#000" stroke-miterlimit="10" fill="none"/><path d="M222.23 178.52l3.653 13.785" stroke-width="1.2" stroke="#00f" stroke-miterlimit="10" fill="none"/><path d="M212.824 169.207l2.922 11.03" stroke-width="1.2" stroke="#000" stroke-miterlimit="10" fill="none"/><path d="M215.746 180.238l2.918 11.028" stroke-width="1.2" stroke="#00f" stroke-miterlimit="10" fill="none"/><path d="M218.578 164.734l18.016-22.117" stroke-width="1.2" stroke="#000" stroke-miterlimit="10" fill="none"/><path d="M225.883 192.305l-23.965 15.465" stroke-width="1.2" stroke="#00f" stroke-miterlimit="10" fill="none"/><path d="M221.883 185.805h8v13h-8zm0 0" fill="#fff"/><use xlink:href="#b" x="221.883" y="195.706" fill="#00f"/><path d="M197.918 201.27h8v13h-8zm0 0" fill="#fff"/><use xlink:href="#b" x="197.918" y="211.171" fill="#00f"/><path d="M236.594 142.617l28.156 4.543" stroke-width="1.2" stroke="#000" stroke-miterlimit="10" fill="none"/></g></svg>
